res/skins/LateNight/buttons/btn_hotcue_2_overdown.svg

<?xml version="1.0" encoding="UTF-8" standalone="no"?>
<!-- Created with Inkscape (http://www.inkscape.org/) -->

<svg
   xmlns:dc="http://purl.org/dc/elements/1.1/"
   xmlns:cc="http://creativecommons.org/ns#"
   xmlns:rdf="http://www.w3.org/1999/02/22-rdf-syntax-ns#"
   xmlns:svg="http://www.w3.org/2000/svg"
   xmlns="http://www.w3.org/2000/svg"
   xmlns:xlink="http://www.w3.org/1999/xlink"
   xmlns:inkscape="http://www.inkscape.org/namespaces/inkscape"
   version="1.1"
   width="26"
   height="26"
   id="svg2">
  <defs
     id="defs4">
    <inkscape:path-effect
       effect="spiro"
       id="path-effect5772" />
    <inkscape:path-effect
       effect="spiro"
       id="path-effect3950" />
    <inkscape:path-effect
       effect="spiro"
       id="path-effect3946" />
    <linearGradient
       id="linearGradient3801">
      <stop
         id="stop3803"
         style="stop-color:#242424;stop-opacity:1"
         offset="0" />
      <stop
         id="stop3805"
         style="stop-color:#101010;stop-opacity:1"
         offset="1" />
    </linearGradient>
    <linearGradient
       x1="13"
       y1="1027.3622"
       x2="13"
       y2="1049.3622"
       id="linearGradient3807-3"
       xlink:href="#linearGradient3801-6"
       gradientUnits="userSpaceOnUse"
       gradientTransform="translate(0,-1026.3622)" />
    <linearGradient
       id="linearGradient3801-6">
      <stop
         id="stop3803-7"
         style="stop-color:#242424;stop-opacity:1"
         offset="0" />
      <stop
         id="stop3805-5"
         style="stop-color:#101010;stop-opacity:1"
         offset="1" />
    </linearGradient>
    <linearGradient
       x1="13"
       y1="1027.3622"
       x2="13"
       y2="1049.3622"
       id="linearGradient3807-3-3"
       xlink:href="#linearGradient3801-6-5"
       gradientUnits="userSpaceOnUse"
       gradientTransform="translate(0,-1026.3622)" />
    <linearGradient
       id="linearGradient3801-6-5">
      <stop
         id="stop3803-7-6"
         style="stop-color:#222222;stop-opacity:1"
         offset="0" />
      <stop
         id="stop3805-5-2"
         style="stop-color:#131516;stop-opacity:1"
         offset="1" />
    </linearGradient>
    <linearGradient
       x1="15"
       y1="1049.3622"
       x2="15"
       y2="1027.3622"
       id="linearGradient3878"
       xlink:href="#linearGradient3801-6-5"
       gradientUnits="userSpaceOnUse"
       gradientTransform="translate(0,-1026.3622)" />
    <inkscape:path-effect
       effect="spiro"
       id="path-effect3946-1" />
    <inkscape:path-effect
       effect="spiro"
       id="path-effect3950-2" />
    <linearGradient
       x1="13"
       y1="1027.3622"
       x2="13"
       y2="1049.3622"
       id="linearGradient3807-3-7"
       xlink:href="#linearGradient3801-6-0"
       gradientUnits="userSpaceOnUse"
       gradientTransform="translate(0,-1026.3622)" />
    <linearGradient
       id="linearGradient3801-6-0">
      <stop
         id="stop3803-7-9"
         style="stop-color:#242424;stop-opacity:1"
         offset="0" />
      <stop
         id="stop3805-5-3"
         style="stop-color:#101010;stop-opacity:1"
         offset="1" />
    </linearGradient>
    <filter
       color-interpolation-filters="sRGB"
       id="filter4024">
      <feGaussianBlur
         stdDeviation="3"
         id="feGaussianBlur4026" />
    </filter>
    <filter
       color-interpolation-filters="sRGB"
       id="filter4068">
      <feGaussianBlur
         id="feGaussianBlur4070"
         stdDeviation="0.984" />
    </filter>
    <inkscape:path-effect
       effect="spiro"
       id="path-effect3950-2-5" />
    <inkscape:path-effect
       effect="spiro"
       id="path-effect3946-1-1" />
    <inkscape:path-effect
       effect="spiro"
       id="path-effect3950-2-5-2" />
    <inkscape:path-effect
       effect="spiro"
       id="path-effect3946-1-1-0" />
    <inkscape:path-effect
       effect="spiro"
       id="path-effect3950-2-5-2-7" />
    <inkscape:path-effect
       effect="spiro"
       id="path-effect3946-1-1-0-4" />
    <inkscape:path-effect
       effect="spiro"
       id="path-effect3950-2-9" />
    <inkscape:path-effect
       effect="spiro"
       id="path-effect3946-1-2" />
    <linearGradient
       x1="13"
       y1="1027.3622"
       x2="13"
       y2="1049.3622"
       id="linearGradient3807-3-5"
       xlink:href="#linearGradient3801-6-9"
       gradientUnits="userSpaceOnUse"
       gradientTransform="translate(0,-1026.3622)" />
    <linearGradient
       id="linearGradient3801-6-9">
      <stop
         id="stop3803-7-1"
         style="stop-color:#ce0e0e;stop-opacity:1"
         offset="0" />
      <stop
         id="stop4329"
         style="stop-color:#dd0000;stop-opacity:1"
         offset="0.28" />
      <stop
         id="stop3805-5-28"
         style="stop-color:#8d0000;stop-opacity:1"
         offset="1" />
    </linearGradient>
    <inkscape:path-effect
       effect="spiro"
       id="path-effect3950-2-9-0" />
    <inkscape:path-effect
       effect="spiro"
       id="path-effect3946-1-2-6" />
    <linearGradient
       x1="15"
       y1="1049.3622"
       x2="15"
       y2="1027.3622"
       id="linearGradient4308-4"
       xlink:href="#linearGradient3801-6-9-0"
       gradientUnits="userSpaceOnUse"
       gradientTransform="translate(0,-1026.3622)" />
    <linearGradient
       id="linearGradient3801-6-9-0">
      <stop
         id="stop3803-7-1-9"
         style="stop-color:#aa1112;stop-opacity:1"
         offset="0" />
      <stop
         id="stop4329-4"
         style="stop-color:#b60607;stop-opacity:1"
         offset="0.28" />
      <stop
         id="stop3805-5-28-5"
         style="stop-color:#760607;stop-opacity:1"
         offset="1" />
    </linearGradient>
    <linearGradient
       x1="15"
       y1="1049.3622"
       x2="15"
       y2="1027.3622"
       id="linearGradient4370"
       xlink:href="#linearGradient3801-6-9-0"
       gradientUnits="userSpaceOnUse"
       gradientTransform="translate(0,-1026.3622)" />
    <linearGradient
       x1="15"
       y1="1049.3622"
       x2="15"
       y2="1027.3622"
       id="linearGradient4308-3"
       xlink:href="#linearGradient3801-6-9-9"
       gradientUnits="userSpaceOnUse"
       gradientTransform="translate(0,-1026.3622)" />
    <linearGradient
       id="linearGradient3801-6-9-9">
      <stop
         id="stop3803-7-1-95"
         style="stop-color:#ce0e0e;stop-opacity:1"
         offset="0" />
      <stop
         id="stop4329-2"
         style="stop-color:#dd0000;stop-opacity:1"
         offset="0.28" />
      <stop
         id="stop3805-5-28-1"
         style="stop-color:#8d0000;stop-opacity:1"
         offset="1" />
    </linearGradient>
    <linearGradient
       x1="11"
       y1="1027.3622"
       x2="11"
       y2="1049.3622"
       id="linearGradient4650"
       xlink:href="#linearGradient3801-6-9-9"
       gradientUnits="userSpaceOnUse"
       gradientTransform="translate(0,-1026.3622)" />
    <filter
       color-interpolation-filters="sRGB"
       id="filter4068-1-1">
      <feGaussianBlur
         id="feGaussianBlur4070-3-3"
         stdDeviation="0.984" />
    </filter>
    <inkscape:path-effect
       effect="spiro"
       id="path-effect5772-4" />
    <inkscape:path-effect
       effect="spiro"
       id="path-effect5772-4-5" />
    <inkscape:path-effect
       effect="spiro"
       id="path-effect5772-4-57" />
    <inkscape:path-effect
       effect="spiro"
       id="path-effect5772-4-5-3" />
    <inkscape:path-effect
       effect="spiro"
       id="path-effect5772-4-57-5" />
    <inkscape:path-effect
       effect="spiro"
       id="path-effect5772-4-5-3-3" />
    <inkscape:path-effect
       effect="spiro"
       id="path-effect3946-1-1-0-4-0" />
    <inkscape:path-effect
       effect="spiro"
       id="path-effect3950-2-5-2-7-3" />
    <inkscape:path-effect
       effect="spiro"
       id="path-effect5772-4-57-5-3" />
    <inkscape:path-effect
       effect="spiro"
       id="path-effect5772-4-5-3-3-6" />
  </defs>
  <metadata
     id="metadata7">
    <rdf:RDF>
      <cc:Work
         rdf:about="">
        <dc:format>image/svg+xml</dc:format>
        <dc:type
           rdf:resource="http://purl.org/dc/dcmitype/StillImage" />
        <dc:title></dc:title>
      </cc:Work>
    </rdf:RDF>
  </metadata>
  <g
     id="layer3"
     style="display:none">
    <rect
       width="23"
       height="23.000017"
       rx="2"
       ry="2"
       x="0.5"
       y="0.49998301"
       id="rect3029-9"
       style="color:#000000;fill:url(#linearGradient3878);fill-opacity:1;fill-rule:nonzero;stroke:none;stroke-width:1;marker:none;visibility:visible;display:inline;overflow:visible;enable-background:accumulate" />
    <g
       id="layer10"
       style="display:none">
      <image
         xlink:href="data:image/png;base64,iVBORw0KGgoAAAANSUhEUgAAABoAAAAaCAYAAACpSkzOAAAABHNCSVQICAgIfAhkiAAAAk5JREFU
SIm9lr1OVFEUhb+FJJpwHdBXoDcW0FtSEBsoJnQ2vpMvgISCaDSBxJKWBt+BVjIBCynOsji/l3sv
oWDYmUzmztl7r7P2z5rR5ubmx+3t7e8swc7Pzz9dXV19A240n899cXGxDBy2trY4Ojr6AFyuLAWh
b++AN6sAth8dJWDKe+JsHXi1ChBsRPSyQAZjJOIXOQsmoOKL4iWzX+i79iwyCoFyZuGUxTb5KQIa
yim4gCk9OL2G3CKjBISahFIJFMIEUAaI31igFGolMMdEGgdyTBIyL2NUsEIKkkxILOSaSvE2uL0U
GimdQ7y8c0uMECH555oHOQII5ADK5U2sEJIjoB4qXdNEp7Idfj1kyg4ODtqQGJXjR4fBITZUhVJi
YubzOYvFohd0enoKwPX1NRvr64l/qWNiOVK6EOrENJTKTWezWc4x2BPbuEyiyk56bBgeWtjj4+PJ
M9sE9wo36ftoZdjZ2ZkEu29jzIdA2atVBeDs7GyQcH9/v1Q7D7sLyEiPyu3ygpqkEIG9vT1ub/8m
hYgDE2cmJurWurhfOfFEdaoESVl4CBZKSgCi69aaYlTFyBsdMiNnRYH7xYtAKSBODSD39Ktf8yii
ZbHrkMaRtqssNrYS2UZlyBNkt31zlbDmmVCJlXfHuUvphoxK9kavWiWW0mep9xNS26HaQyh9HAIN
drX1qrKC60m/567MmlIOSvcc9mxA6rru8+7u7pdlJD85Ofl1d3f3A/gpYAN4T/y3MntirAXwG7gU
8AJ4DbwFXj4x0D/gD3DzH9nraXNADqa9AAAAAElFTkSuQmCC
"
         x="76"
         y="-18"
         width="26"
         height="26"
         id="image5745" />
      <image
         xlink:href="data:image/png;base64,iVBORw0KGgoAAAANSUhEUgAAABoAAAAaCAYAAACpSkzOAAAABHNCSVQICAgIfAhkiAAAAk9JREFU
SIm9ls1OU1EUhb+FJJpYC/oKzI0DmPsAxAkhaZg58Z18AUQkRKMJJA6ZMsF3YCppigMZnOVgn597
uS3BhLLTNL09e+911v5ZrTY2Nt5tbW19Ywl2dnb2/vLy8isw02Qy8fn5+TJw2Nzc5ODg4C1wsbIU
hL69Bl6uAti+d5SARd4LztaAZ6sAyUaElwUyGCMRX5QsmISqL4pLFr/Ud+1ZMEqJembhnMU25SkA
DfUUXMGUH5xfQ27BKAOhTkKpBgphEqgAxDcWKIdaGcyRSPOBHElS4WWMKlbKQZJJmYXcUilug7uX
QnNK5xSXd2mJESJl/1LzJAeAQE6gUt7MCiE5AHVX6TpNdC7b/qd9Ftne3l43JKJK/NxhcIqGqlLK
TMxkMmE6nfaCTk5OALi6umJ9bS3zr3XMLOeULqU2MR1K9abj8bjkGOyJbVwnUXUnPW8Y7ruwnw8P
ByDJvcItjP0voN3dXWazGaenpz2w2zaP+RCoeOWdOjr6cid4qXYZdleQOT1qQXlBTVaIxM7ODtfX
f7JCxMDEzEQiJ8d+lcQLqtMkSCrCQ7JQVgIQo9HzTjGaYpSNToWRi6LA7eIFUA6IqQHknn71ax4i
Whe7DWmMtN1ksWMrwTaUoUyQ3e2bm4R1nkmNWH13zF1ON2RUs3f0qqvEUv4s9X5CWjvUegi1j0Og
wa52vZqs4HbS77kbs04pB6V7DHs0II1Gow/b29sfl5H8+Pj4583NzXfgh4B14A3xb2X8wFhT4Bdw
IeAJ8AJ4BTx9YKC/wG9g9g8RZHBSkFRzuQAAAABJRU5ErkJggg==
"
         x="36"
         y="4"
         width="26"
         height="26"
         id="image5756" />
      <image
         xlink:href="data:image/png;base64,iVBORw0KGgoAAAANSUhEUgAAABoAAAAaCAYAAACpSkzOAAAABHNCSVQICAgIfAhkiAAAAlNJREFU
SIm9lj1uU0EUhb8TIoGihx3YgntE4fQsIKIJkax0NOyJBcS4ikAgJRJl2jRhD26JLCsFKeZQzM+b
l/cMKeKMXHhm7r1nzv05tiaTyfuDg4NvbGFdXl5+XC6XX4G1ZrOZr66utoHDdDplsVi8A653toLQ
XW+AV7sAth/sJWCT9Ya7MfBiFyDYiGhlgQzGSMSDHAUTULFF8ZHZLnRNOysyCoFyZ+EUxTZ5FwEN
5RZcwJQ2Tp8+t8goAaEqoFQchTABlAHiiQVKrlYCcwykYSDHICHzMkYFKyQnyYTEQm5DKb4G149C
A6lziI93LokRIiT7nPMgRwCBHEA5vYkVQnIE1L9SVxXRKW2oynZqkvnpHICTk5PaJXpl/8FmcIgF
VaGUmJgv8wUAs9msl/mbmxv2x+PEv+QxsRxIXQhtx1SUOkFXqxXj0ag3J7Zx6USVmfRQMzxkYM/P
z3tntgnuJG6j/3+Bjo+PWa/XnbOLi4sO2P01pBB9oGxVzVTTNBsj5Gzn6rmYDNSodUoDapJC5G5M
A5oa5sPREevb2+gTHOcrB96QnVaCpCw8BAslJcg0nN+aJKrZ2yvqETIjZ0UpXO8BJYfYNYDc0a9u
xqKIlsFumzS2tN3KYrV2ItuoDLmD7LpubiWs2hOoRiD7Jd5hQzOU6JVe1Uospe9S5yekLUeqYa6T
WqZdoN6s1latrOD2pltzt8yqVPZS9xTryYDUNM2nw8PDz9sIfnZ29vPu7u478EPAPvCW+G9l9MhY
K+AXcC3gGfASeA08f2SgP8BvYP0Xwnh4X0KADAMAAAAASUVORK5CYII=
"
         x="39"
         y="-19"
         width="26"
         height="26"
         id="image5767" />
    </g>
    <g
       id="layer7"
       style="display:none">
      <path
         d="m 10,9.000017 3,0 0,6 -2,0 0,-5 -1,0 0,-1"
         id="path3944-9"
         style="fill:#8d8f90;fill-opacity:1;stroke:none;display:inline" />
      <path
         d="m 13,10.000017 1,0 0,6 -2,0 0,-1 1,0 0,-5"
         id="path3948-7"
         style="fill:#080808;fill-opacity:1;stroke:none;display:inline" />
    </g>
    <g
       id="layer13"
       style="display:inline">
      <path
         d="m 10,10 7,0 0,4 -5,0 0,1 5,0 0,1 -7,0 0,-3 5,0 0,-2 -5,0 0,-1"
         id="path5770-89-8"
         style="fill:#080808;fill-opacity:1;stroke:none;display:inline" />
      <path
         d="m 9,9 7,0 0,4 -5,0 0,1 5,0 0,1 -7,0 0,-3 5,0 0,-2 -5,0 0,-1"
         id="path5770-8-5-6"
         style="fill:#8d8f90;fill-opacity:1;stroke:none;display:inline" />
    </g>
    <path
       d="M 2,0 C 0.90064862,0 0,0.90064862 0,2 l 0,20 c 0,1.099351 0.90064862,2 2,2 l 20,0 c 1.099351,0 2,-0.900649 2,-2 L 24,2 C 24,0.90064862 23.099351,0 22,0 z M 2.3,1 21.7,1 C 22.262649,1 23,1.7373514 23,2.3 l 0,19.4 C 23,22.262649 22.262649,23 21.7,23 L 2.3,23 C 1.7373514,23 1,22.262649 1,21.7 L 1,2.3 C 1,1.7373514 1.7373514,1 2.3,1 z"
       id="rect3029-96-0-9"
       style="font-size:medium;font-style:normal;font-variant:normal;font-weight:normal;font-stretch:normal;text-indent:0;text-align:start;text-decoration:none;line-height:normal;letter-spacing:normal;word-spacing:normal;text-transform:none;direction:ltr;block-progression:tb;writing-mode:lr-tb;text-anchor:start;baseline-shift:baseline;color:#000000;fill:#454748;fill-opacity:1;fill-rule:nonzero;stroke:none;stroke-width:1;marker:none;visibility:visible;display:inline;overflow:visible;enable-background:accumulate;font-family:Sans;-inkscape-font-specification:Sans" />
  </g>
  <g
     id="layer2"
     style="display:none">
    <rect
       width="24"
       height="24"
       rx="2"
       ry="2"
       x="2"
       y="2"
       id="rect3029-6"
       style="color:#000000;fill:#060606;fill-opacity:1;fill-rule:nonzero;stroke:none;stroke-width:1;marker:none;visibility:visible;display:inline;overflow:visible;filter:url(#filter4068);enable-background:accumulate" />
    <rect
       width="23"
       height="23.000017"
       rx="2"
       ry="2"
       x="0.5"
       y="0.49998301"
       id="rect3029"
       style="color:#000000;fill:url(#linearGradient3807-3);fill-opacity:1;fill-rule:nonzero;stroke:none;stroke-width:1;marker:none;visibility:visible;display:inline;overflow:visible;enable-background:accumulate" />
    <g
       id="layer6"
       style="display:none">
      <path
         d="m 10,9.000017 3,0 0,6 -2,0 0,-5 -1,0 0,-1"
         id="path3944"
         style="fill:#bfbfbf;fill-opacity:1;stroke:none;display:inline" />
      <path
         d="m 13,10.000017 1,0 0,6 -2,0 0,-1 1,0 0,-5"
         id="path3948"
         style="fill:#060606;fill-opacity:1;stroke:none;display:inline" />
    </g>
    <g
       id="layer14"
       style="display:inline">
      <path
         d="m 10,10 7,0 0,4 -5,0 0,1 5,0 0,1 -7,0 0,-3 5,0 0,-2 -5,0 0,-1"
         id="path5770-89-8-1"
         style="fill:#060606;fill-opacity:1;stroke:none;display:inline" />
      <path
         d="m 9,9 7,0 0,4 -5,0 0,1 5,0 0,1 -7,0 0,-3 5,0 0,-2 -5,0 0,-1"
         id="path5770-8-5-6-8"
         style="fill:#bfbfbf;fill-opacity:1;stroke:none;display:inline" />
    </g>
    <path
       d="M 2,0 C 0.90064862,0 0,0.90064862 0,2 l 0,20 c 0,1.099351 0.90064862,2 2,2 l 20,0 c 1.099351,0 2,-0.900649 2,-2 L 24,2 C 24,0.90064862 23.099351,0 22,0 z M 2.3,1 21.7,1 C 22.262649,1 23,1.7373514 23,2.3 l 0,19.4 C 23,22.262649 22.262649,23 21.7,23 L 2.3,23 C 1.7373514,23 1,22.262649 1,21.7 L 1,2.3 C 1,1.7373514 1.7373514,1 2.3,1 z"
       id="rect3029-96-0"
       style="font-size:medium;font-style:normal;font-variant:normal;font-weight:normal;font-stretch:normal;text-indent:0;text-align:start;text-decoration:none;line-height:normal;letter-spacing:normal;word-spacing:normal;text-transform:none;direction:ltr;block-progression:tb;writing-mode:lr-tb;text-anchor:start;baseline-shift:baseline;color:#000000;fill:#585858;fill-opacity:1;fill-rule:nonzero;stroke:none;stroke-width:1;marker:none;visibility:visible;display:inline;overflow:visible;enable-background:accumulate;font-family:Sans;-inkscape-font-specification:Sans" />
  </g>
  <g
     id="layer5"
     style="display:inline">
    <rect
       width="23"
       height="23.000017"
       rx="1.5"
       ry="1.5"
       x="0.5"
       y="0.49998301"
       id="rect3029-96-4"
       style="color:#000000;fill:url(#linearGradient4370);fill-opacity:1;fill-rule:nonzero;stroke:none;stroke-width:1;marker:none;visibility:visible;display:inline;overflow:visible;enable-background:accumulate" />
    <g
       id="layer9"
       style="display:none">
      <path
         d="m 10,9 3,0 0,6 -2,0 0,-5 -1,0 0,-1"
         id="path3944-9-6"
         style="fill:#8d8f90;fill-opacity:1;stroke:none;display:inline" />
      <path
         d="m 13,10 1,0 0,6 -2,0 0,-1 1,0 0,-5"
         id="path3948-7-8"
         style="fill:#320202;fill-opacity:1;stroke:none;display:inline" />
    </g>
    <g
       id="layer12"
       style="display:inline">
      <path
         d="m 10,10 7,0 0,4 -5,0 0,1 5,0 0,1 -7,0 0,-3 5,0 0,-2 -5,0 0,-1"
         id="path5770-89"
         style="fill:#320202;fill-opacity:1;stroke:none;display:inline" />
      <path
         d="m 9,9 7,0 0,4 -5,0 0,1 5,0 0,1 -7,0 0,-3 5,0 0,-2 -5,0 0,-1"
         id="path5770-8-5"
         style="fill:#8d8f90;fill-opacity:1;stroke:none;display:inline" />
    </g>
    <path
       d="M 2,0 C 0.90064862,0 0,0.90064862 0,2 l 0,20 c 0,1.099351 0.90064862,2 2,2 l 20,0 c 1.099351,0 2,-0.900649 2,-2 L 24,2 C 24,0.90064862 23.099351,0 22,0 z M 2.3,1 21.7,1 C 22.262649,1 23,1.7373514 23,2.3 l 0,19.4 C 23,22.262649 22.262649,23 21.7,23 L 2.3,23 C 1.7373514,23 1,22.262649 1,21.7 L 1,2.3 C 1,1.7373514 1.7373514,1 2.3,1 z"
       id="rect3029-96-9"
       style="font-size:medium;font-style:normal;font-variant:normal;font-weight:normal;font-stretch:normal;text-indent:0;text-align:start;text-decoration:none;line-height:normal;letter-spacing:normal;word-spacing:normal;text-transform:none;direction:ltr;block-progression:tb;writing-mode:lr-tb;text-anchor:start;baseline-shift:baseline;color:#000000;fill:#979797;fill-opacity:1;fill-rule:nonzero;stroke:none;stroke-width:1;marker:none;visibility:visible;display:inline;overflow:visible;enable-background:accumulate;font-family:Sans;-inkscape-font-specification:Sans" />
  </g>
  <g
     id="layer4"
     style="display:none">
    <rect
       width="24"
       height="24"
       rx="2"
       ry="2"
       x="2"
       y="2"
       id="rect3029-6-1"
       style="color:#000000;fill:#060606;fill-opacity:1;fill-rule:nonzero;stroke:none;stroke-width:1;marker:none;visibility:visible;display:inline;overflow:visible;filter:url(#filter4068-1-1);enable-background:accumulate" />
    <rect
       width="23"
       height="23.000017"
       rx="1.5"
       ry="1.5"
       x="0.5"
       y="0.49998301"
       id="rect3029-96-3"
       style="color:#000000;fill:url(#linearGradient4650);fill-opacity:1;fill-rule:nonzero;stroke:none;stroke-width:1;marker:none;visibility:visible;display:inline;overflow:visible;enable-background:accumulate" />
    <path
       d="M 2,0 C 0.90064862,0 0,0.90064862 0,2 l 0,20 c 0,1.099351 0.90064862,2 2,2 l 20,0 c 1.099351,0 2,-0.900649 2,-2 L 24,2 C 24,0.90064862 23.099351,0 22,0 z M 2.3,1 21.7,1 C 22.262649,1 23,1.7373514 23,2.3 l 0,19.4 C 23,22.262649 22.262649,23 21.7,23 L 2.3,23 C 1.7373514,23 1,22.262649 1,21.7 L 1,2.3 C 1,1.7373514 1.7373514,1 2.3,1 z"
       id="rect3029-96"
       style="font-size:medium;font-style:normal;font-variant:normal;font-weight:normal;font-stretch:normal;text-indent:0;text-align:start;text-decoration:none;line-height:normal;letter-spacing:normal;word-spacing:normal;text-transform:none;direction:ltr;block-progression:tb;writing-mode:lr-tb;text-anchor:start;baseline-shift:baseline;color:#000000;fill:#979797;fill-opacity:1;fill-rule:nonzero;stroke:none;stroke-width:1;marker:none;visibility:visible;display:inline;overflow:visible;enable-background:accumulate;font-family:Sans;-inkscape-font-specification:Sans" />
    <g
       id="layer8"
       style="display:none">
      <path
         d="m 10,9.000017 3,0 0,6 -2,0 0,-5 -1,0 0,-1"
         id="path3944-4"
         style="fill:#bfbfbf;fill-opacity:1;stroke:none;display:inline" />
      <path
         d="m 13,10.000017 1,0 0,6 -2,0 0,-1 1,0 0,-5"
         id="path3948-4"
         style="fill:#3d0000;fill-opacity:1;stroke:none;display:inline" />
    </g>
    <g
       id="layer11"
       style="display:inline">
      <g
         transform="translate(-16,21)"
         id="g5817">
        <path
           d="m 26,-11 7,0 0,4 -5,0 0,1 5,0 0,1 -7,0 0,-3 5,0 0,-2 -5,0 0,-1"
           id="path5770"
           style="fill:#3d0000;fill-opacity:1;stroke:none;display:inline" />
        <path
           d="m 25,-12 7,0 0,4 -5,0 0,1 5,0 0,1 -7,0 0,-3 5,0 0,-2 -5,0 0,-1"
           id="path5770-8"
           style="fill:#bfbfbf;fill-opacity:1;stroke:none;display:inline" />
      </g>
    </g>
  </g>
</svg>

<svg id="svg2" width="26" height="26" version="1.1" xmlns="http://www.w3.org/2000/svg"><defs id="defs4"><linearGradient id="linearGradient4370" x1="15" x2="15" y1="1049.4" y2="1027.4" gradientTransform="translate(0 -1026.4)" gradientUnits="userSpaceOnUse"><stop id="stop3803-7-1-9" stop-color="#aa1112" offset="0"/><stop id="stop4329-4" stop-color="#b60607" offset=".28"/><stop id="stop3805-5-28-5" stop-color="#760607" offset="1"/></linearGradient></defs><g id="layer5"><rect id="rect3029-96-4" x=".5" y=".49998" width="23" height="23" rx="1.5" ry="1.5" color="#000000" fill="url(#linearGradient4370)"/><g id="layer12"><path id="path5770-89" d="m10 10h7v4h-5v1h5v1h-7v-3h5v-2h-5v-1" fill="#320202"/><path id="path5770-8-5" d="m9 9h7v4h-5v1h5v1h-7v-3h5v-2h-5v-1" fill="#8d8f90"/></g><path id="rect3029-96-9" d="m2 0c-1.0994 0-2 0.90065-2 2v20c0 1.0994 0.90065 2 2 2h20c1.0994 0 2-0.90065 2-2v-20c0-1.0994-0.90065-2-2-2zm0.3 1h19.4c0.56265 0 1.3 0.73735 1.3 1.3v19.4c0 0.56265-0.73735 1.3-1.3 1.3h-19.4c-0.56265 0-1.3-0.73735-1.3-1.3v-19.4c0-0.56265 0.73735-1.3 1.3-1.3z" color="#000000" fill="#979797" style="block-progression:tb;text-indent:0;text-transform:none"/></g></svg>
